svgs/thin/bluetooth.svg

<svg xmlns="http://www.w3.org/2000/svg" viewBox="0 0 320 512"><!--! Font Awesome Pro 6.3.0 by @fontawesome - https://fontawesome.com License - https://fontawesome.com/license (Commercial License) Copyright 2023 Fonticons, Inc. --><path d="M172.7 256l144.4-117.8C318.9 136.7 320 134.4 320 132s-1.094-4.688-2.938-6.188l-152-124c-2.406-1.938-5.688-2.406-8.5-1.031C153.8 2.102 152 4.914 152 8.008v231.2L13.06 125.8C9.592 123 4.592 123.5 1.811 126.9C-1.002 130.4-.4707 135.4 2.936 138.2l144.4 117.8l-144.4 117.8c-3.406 2.781-3.938 7.812-1.125 11.25c2.781 3.406 7.781 3.938 11.25 1.125L152 272.8V504c0 3.094 1.781 5.906 4.562 7.219C157.7 511.8 158.8 512 160 512c1.812 0 3.593-.625 5.062-1.812l152-124C318.9 384.7 320 382.4 320 380s-1.094-4.688-2.938-6.188L172.7 256zM168 24.85l131.3 107.2L168 239.2V24.85zM168 487.2V272.8L299.3 380L168 487.2z"/></svg>

<svg xmlns="http://www.w3.org/2000/svg" viewBox="0 0 320 512"><!-- Font Awesome Pro 6.0.0-alpha2 by @fontawesome - https://fontawesome.com License - https://fontawesome.com/license (Commercial License) --><path d="M172.656 256.004L317.063 138.195C318.906 136.695 320 134.414 320 132.008S318.906 127.32 317.063 125.82L165.063 1.82C162.656 -0.117 159.375 -0.586 156.563 0.789C153.781 2.102 152 4.914 152 8.008V239.16L13.061 125.82C9.592 123.008 4.592 123.508 1.811 126.945C-1.002 130.383 -0.471 135.414 2.936 138.195L147.344 256.004L2.936 373.813C-0.471 376.594 -1.002 381.625 1.811 385.063C4.592 388.469 9.592 389 13.061 386.188L152 272.848V504C152 507.094 153.781 509.906 156.563 511.219C157.656 511.75 158.844 512 160 512C161.813 512 163.594 511.375 165.063 510.188L317.063 386.188C318.906 384.688 320 382.406 320 380S318.906 375.312 317.063 373.812L172.656 256.004ZM168 24.852L299.344 132.008L168 239.16V24.852ZM168 487.156V272.848L299.344 380L168 487.156Z"/></svg>
